X:420
T:Reel 420
L:1/8
M: 4/4
K: A Major
B,A,A,G,A,B,CE|D2B,EEFGA|Bdd2cAGE|DB,CA,B,A,G,A,|B,A,A,G,A,B,CE|DCB,A,G,EGA|BAGEFGAB|GEDB,B,A,A,B,:||:EAA2AGEF|GFGABAAE|EAA2AGED|B,CDB,CA,CD|EAA2AGEF|GFGABAAG|EFGABAAF|GEDB,B,A,A,2:|.abc